X:1
T:Fantasies and Preludes
T:Sonata I - Affettuoso  in D major
T:J. J. Quantz 
T:dalle 6 sonate per flauto , QV 1:Anh.14a
C:Quantz
%%score 1 2
L:1/8
Q:1/4=110
M:4/4
K:D
V:1 treble nm="Flute" snm="Fl."
V:2 bass nm="Violoncello" snm="Vc."
V:1
 a3 b cd z f | ef ga/g/ fe z f | eeac d2 z d | ccfF Bc de/d/ | cA e3 d/c/ (d2 | %5
 d)c/B/ c2- c>B TB>A | A2 z A d3 (e/f/) | B2 z B c3 (d/e/) | ^AF z f dced | gf e3 d/e/ c>B | %10
 B2 z f g^def | gf z b ^de/f/ f>e | e2 z e fcde | fe z a cd/e/ Te>d | %14
 d2 z A (B/A/)(A/B/) B/(c/4d/4)e/d/ | (c/B/)(B/c/) c/(d/4e/4)f/e/ (d/c/)(c/d/) d/(e/4f/4)g/f/ | %16
 (e/d/)(d/e/) (e/f/4g/4)a/g/ fd (a2 | a)g/f/ g3 f/e/ (f2 | f>)e Te>d d2 z (B | B) A2 G2 e z G | %20
 F/G/A/B/ E>D D4 || %21
V:2
 D,E,F,G, A,B,C,D,- | D,2 C,2 D,2 D2- | DC/B,/ C3 B,/A,/ B,2- | B,A,/^G,/ A,4 G,2 | %4
 A,2 z ^G, F,2 B,A, | ^G,E,A,G, F,D,E,E,, | A,,E,A,G, F,E,F,D, | G,G,,G,F, E,F,G,E, | %8
 F,^G,^A,F, B,=A,G,F, | E,D,C,B,, ^A,,B,,F,F,, | B,,C,D,B,, E,F,G,^D, | G,B,A,G, F,E,B,B,, | %12
 E,D,C,A,, D,E,F,C, | D,A,G,F, E,D,A,A,, | D,E,F,D, G,F,G,E, | A,G,A,F, B,A,B,G, | CB,CA, D2 z C | %17
 B,2 ED CA,DC | B,G,A,A,, D,E,F,G, | C,F,B,,E, A,,2 C,2 | D,/E,/F,/G,/ A,A,, D,4 || %21

